X:418
T: Un jeune soldat (137), S. 310f
N: T0306
O: Luxemburg
S: Singendes Volk, Esch-Alzette 1937, posth.]
N: Junglinster, fff Vater des Autors, vor 1900
R: historische, Kriegs- und Soldatenlieder]
M: 4/4
L: 1/16
K: G
D2B2A2 | G6G2F2G2A2G2 | F2E2D4z2
D2G2A2 | B6B2A2G2A2B2 | A4z6
D2B2A2 | G6G2F2G2A2G2 | F2E2D4
d4d2e2 | d6A2B2A2G2E2 | D8z8
A4A2A2B6B2 | c2B2A2G2B4G4
A4A2A2B4B2B2 | ^c4c2c2d8- | d2
c2B2A2G6G2 | F2G2A2G2F2E2D4
d4d2e2d4A2B2 | A4G2E2D4
D3D | D4B3BB4A2B2 | A4G2E2D4
D3D | D4d3dd4c2B2 | A4E2F2G4B3A | G8z2

